16x16/actions/guides.svg

<svg viewBox="0 0 16 16" xmlns="http://www.w3.org/2000/svg"><path d="m2 2v4l3-2zm3 2v3h-1v3h1v4h1v-4h1v-3h-1v-5h-1zm1 0 3 2v-4zm4 3v3h1v4h1v-4h1v-3zm-2 1v1h1v-1z" fill="#8b9cbe"/></svg>

<svg xmlns="http://www.w3.org/2000/svg" viewBox="0 0 16 16"><path style="fill:currentColor;fill-opacity:1;stroke:none;color:#8b9cbe" d="M2 2v4l3-2-3-2zm3 2v3H4v3h1v4h1v-4h1V7H6V2H5v2zm1 0 3 2V2L6 4zm4 3v3h1v4h1v-4h1V7h-3zM8 8v1h1V8H8z"/></svg>
